flaticon/seo-and-analytics/browser-6.svg

<svg xmlns="http://www.w3.org/2000/svg" width="32" height="32" viewBox="0 0 24 24">
    <path d="M2.800781 1.199219C1.921875 1.199219 1.199219 1.921875 1.199219 2.800781 1.199219 3.679688 1.921875 4.398438 2.800781 4.398438 3.679688 4.398438 4.398438 3.679688 4.398438 2.800781 4.398438 1.921875 3.679688 1.199219 2.800781 1.199219zM2.800781 3.601562C2.359375 3.601562 2 3.238281 2 2.800781 2 2.359375 2.359375 2 2.800781 2 3.238281 2 3.601562 2.359375 3.601562 2.800781 3.601562 3.238281 3.238281 3.601562 2.800781 3.601562zM6.398438 1.199219C5.519531 1.199219 4.800781 1.921875 4.800781 2.800781 4.800781 3.679688 5.519531 4.398438 6.398438 4.398438 7.28125 4.398438 8 3.679688 8 2.800781 8 1.921875 7.28125 1.199219 6.398438 1.199219zM6.398438 3.601562C5.960938 3.601562 5.601562 3.238281 5.601562 2.800781 5.601562 2.359375 5.960938 2 6.398438 2 6.839844 2 7.199219 2.359375 7.199219 2.800781 7.199219 3.238281 6.839844 3.601562 6.398438 3.601562zM10 1.199219C9.121094 1.199219 8.398438 1.921875 8.398438 2.800781 8.398438 3.679688 9.121094 4.398438 10 4.398438 10.878906 4.398438 11.601562 3.679688 11.601562 2.800781 11.601562 1.921875 10.878906 1.199219 10 1.199219zM10 3.601562C9.558594 3.601562 9.199219 3.238281 9.199219 2.800781 9.199219 2.359375 9.558594 2 10 2 10.441406 2 10.800781 2.359375 10.800781 2.800781 10.800781 3.238281 10.441406 3.601562 10 3.601562zM10 3.601562"/>
    <path d="M 22.878906 0 L 1.160156 0 C 0.519531 0 0 0.519531 0 1.160156 L 0 22.71875 C 0 23.441406 0.558594 24 1.28125 24 L 22.71875 24 C 23.441406 24 24 23.441406 24 22.71875 L 24 1.160156 C 24 0.519531 23.480469 0 22.878906 0 Z M 23.199219 22.71875 C 23.199219 23 23 23.199219 22.71875 23.199219 L 1.28125 23.199219 C 1 23.199219 0.800781 23 0.800781 22.71875 L 0.800781 5.601562 L 23.199219 5.601562 Z M 0.800781 4.800781 L 0.800781 1.160156 C 0.800781 0.960938 0.960938 0.800781 1.160156 0.800781 L 22.839844 0.800781 C 23.039062 0.800781 23.199219 0.960938 23.199219 1.160156 L 23.199219 4.800781 Z M 0.800781 4.800781"/>
    <path d="M 5.480469 20.800781 L 18.519531 20.800781 C 18.921875 20.800781 19.238281 20.601562 19.441406 20.28125 C 19.640625 19.960938 19.640625 19.558594 19.441406 19.199219 L 12.921875 8.519531 C 12.71875 8.199219 12.398438 8 12 8 C 11.601562 8 11.28125 8.199219 11.078125 8.519531 L 4.558594 19.199219 C 4.359375 19.558594 4.359375 19.960938 4.558594 20.28125 C 4.761719 20.601562 5.078125 20.800781 5.480469 20.800781 Z M 5.238281 19.601562 L 11.761719 8.921875 C 11.839844 8.800781 11.960938 8.800781 12 8.800781 C 12.039062 8.800781 12.160156 8.800781 12.238281 8.960938 L 18.800781 19.601562 C 18.878906 19.71875 18.839844 19.839844 18.800781 19.878906 C 18.761719 19.921875 18.71875 20 18.558594 20 L 5.480469 20 C 5.320312 20 5.28125 19.921875 5.238281 19.878906 C 5.238281 19.839844 5.160156 19.71875 5.238281 19.601562 Z M 5.238281 19.601562"/>
    <path d="M12 16.398438C12.238281 16.398438 12.398438 16.238281 12.398438 16L12.398438 11.761719C12.398438 11.519531 12.238281 11.359375 12 11.359375 11.761719 11.359375 11.601562 11.519531 11.601562 11.761719L11.601562 16C11.601562 16.238281 11.761719 16.398438 12 16.398438zM12 18C12.238281 18 12.398438 17.839844 12.398438 17.601562 12.398438 17.359375 12.238281 17.199219 12 17.199219 11.761719 17.199219 11.601562 17.359375 11.601562 17.601562 11.601562 17.839844 11.761719 18 12 18zM12 18"/>
</svg>

<svg xmlns="http://www.w3.org/2000/svg" width="32" height="32" viewBox="0 0 24 24">
    <path d="M2.8 1.2c-.878 0-1.6.722-1.6 1.6 0 .88.722 1.598 1.6 1.598.88 0 1.598-.718 1.598-1.597 0-.88-.718-1.602-1.597-1.602zm0 2.402A.804.804 0 0 1 2 2.8C2 2.359 2.36 2 2.8 2c.438 0 .802.36.802.8 0 .438-.364.802-.801.802zm0 0M6.398 1.2c-.878 0-1.597.722-1.597 1.6 0 .88.719 1.598 1.597 1.598C7.281 4.398 8 3.68 8 2.801c0-.88-.719-1.602-1.602-1.602zm0 2.402a.801.801 0 0 1 0-1.602c.442 0 .801.36.801.8 0 .438-.36.802-.8.802zm0 0M10 1.2c-.879 0-1.602.722-1.602 1.6 0 .88.723 1.598 1.602 1.598.879 0 1.602-.718 1.602-1.597 0-.88-.723-1.602-1.602-1.602zm0 2.402a.804.804 0 0 1-.8-.801.802.802 0 0 1 1.6 0c0 .437-.359.8-.8.8zm0 0"/>
    <path d="M22.879 0H1.16C.52 0 0 .52 0 1.16V22.72C0 23.44.559 24 1.281 24H22.72C23.44 24 24 23.441 24 22.719V1.16C24 .52 23.48 0 22.879 0zm.32 22.719c0 .281-.199.48-.48.48H1.28c-.281 0-.48-.199-.48-.48V5.602h22.398zM.801 4.8V1.16C.8.96.96.8 1.16.8H22.84c.2 0 .36.16.36.36V4.8zm0 0"/>
    <path d="M5.48 20.8h13.04c.402 0 .718-.198.921-.519.2-.32.2-.722 0-1.082l-6.52-10.68A1.066 1.066 0 0 0 12 8c-.398 0-.719.2-.922.52L4.558 19.2c-.199.359-.199.76 0 1.081.204.32.52.52.922.52zm-.242-1.198l6.524-10.68C11.84 8.8 11.96 8.8 12 8.8c.04 0 .16 0 .238.16l6.563 10.64c.078.118.039.239 0 .278-.04.043-.082.121-.242.121H5.48c-.16 0-.199-.078-.242-.121 0-.04-.078-.16 0-.277zm0 0"/>
    <path d="M12 16.398c.238 0 .398-.16.398-.398v-4.238c0-.242-.16-.403-.398-.403-.238 0-.398.16-.398.403V16c0 .238.16.398.398.398zm0 0M12 18c.238 0 .398-.16.398-.398 0-.243-.16-.403-.398-.403-.238 0-.398.16-.398.403 0 .238.16.398.398.398zm0 0"/>
</svg>
